img/box.svg

<svg width="24" height="25" viewBox="0 0 24 25" fill="none" xmlns="http://www.w3.org/2000/svg">
<path d="M12 21.6199V13.6199M12 21.6199L4.94 17.2074C4.48048 16.9202 4.25072 16.7766 4.12536 16.5504C4 16.3242 4 16.0533 4 15.5114V8.61987M12 21.6199L19.06 17.2074C19.5195 16.9202 19.7493 16.7766 19.8746 16.5504C20 16.3242 20 16.0533 20 15.5114V8.61987M12 13.6199L4 8.61987M12 13.6199L20 8.61987M4 8.61987L10.94 4.28237C11.4555 3.9602 11.7132 3.79912 12 3.79912C12.2868 3.79912 12.5445 3.9602 13.06 4.28237L20 8.61987" stroke="#9B9B9B" stroke-width="2" stroke-linejoin="round"/>
</svg>

<svg width="24" height="25" fill="none" xmlns="http://www.w3.org/2000/svg"><path d="M12 21.62v-8m0 8-7.06-4.413c-.46-.287-.69-.43-.815-.657C4 16.324 4 16.053 4 15.511V8.62m8 13 7.06-4.413c.46-.287.69-.43.815-.657.125-.226.125-.497.125-1.039V8.62m-8 5-8-5m8 5 8-5m-16 0 6.94-4.338c.516-.322.773-.483 1.06-.483.287 0 .544.161 1.06.483L20 8.62" stroke="#9B9B9B" stroke-width="2" stroke-linejoin="round"/></svg>
